X: 9751
T: Delaney's
R: jig
M: 6/8
K: Emixolydian
ABA D3|AGA dcA|GEE cEE|GEE DEG|
ABA D3|AGA dcA|GEE cEE|1 EDC DEG:|2 EDC DEG||
Adc ABc|ded dcA|GEE cEE|GEE DEG|
Adc ABc|~d3 dcA|GEE cEE|1 EDC DEG:|2 EDC D3||

